src/main/resources/img/action/ToggleLogging_dark.svg

<svg width="16" height="16" version="1.1" viewBox="0 0 16 16" xmlns="http://www.w3.org/2000/svg">
 <path d="m12 12v1.5h-10v-1.5zm2-3v1.5h-12v-1.5zm-4-3v1.5l-8-1e-7v-1.5zm2-3v1.5l-10-1e-7v-1.5z" fill="#afb1b3" fill-rule="evenodd"/>
</svg>

<svg width="16" height="16" xmlns="http://www.w3.org/2000/svg"><path d="M12 12v1.5H2V12zm2-3v1.5H2V9zm-4-3v1.5H2V6zm2-3v1.5H2V3z" fill="#afb1b3" fill-rule="evenodd"/></svg>
